X: 29460
T: Night Owl Time, The
R: reel
M: 4/4
K: Dmajor
|:DE|FBAF EFDF|EFDF EDBA|FAAF GBdB|ABdf edBA|
FBAF EFDF|EFDF EDBA|FAAF GBdg|1 fdec d2:|2 fdec d3||
|:e|fded B/c/d Ad|BFAF EFDe|fded B/c/d Ad|Beed eAde|
fded B/c/d Ad|BFAF EFDE|FAAF GBdg|1 fdec d3:|2 fdec d4||

